!!!OTL-incipit: Dahaam bo meiner Mutter, do rumplt alles um und um
!!!ARE: Europa, Mitteleuropa, Deutschland, Ober - Franken, Grafengehaig
!!!SCT: V0005C
!!!TXL: @@BAR
!!!YEM: Copyright 1995, estate of Helmut Schaffrath.
**kern	**text
*ICvox	*
*M2/4	*
*k[b-e-]	*
*B-:	*
{8B-	Da-
=1	=1
8B-	-haam
8c	bo
8d	mei-
8g	-ner
=2	=2
4f	Mut-
8d}	-ter,
{8d	do
=3	=3
8f	rum-
8e-	-plt
8e-	al-
8e-	-les
=4	=4
8g	um
8f	und
8f}	um.
{8B-	Die
=5	=5
8B-	Sau
8d	ist
8e-	in
8g	der
=6	=6
4f	Kü-
8d}	-chn,
{8d	die
=7	=7
8f	Kuh
8e-	ist
8e-	in
8c	der
=8	=8
4B-	Stubn.
8r}	.
==	==
!!!AGN: Geselligkeits - Lied, Scherz
!!!ONB: ESAC (Essen Associative Code) Database: VARIANT
!!!AMT: simple duple
!!!AIN: vox
!!!EED: Helmut Schaffrath
!!!EEV: 1.0
!!!source: Heigl, U.; Liertz, M. J. et al.: Registeer un Beispielsammlung zu den Forschungsexkursionen des Instituts für Volkskunde nach Oberfranken. Maschinenschriftliches Manuskript, München 1982.
!!!page: 100
!!!ENC: Anna Maria Matuszewska
!!!EEV: 2025/04/01
*-	*-
